src/pos-icons/bug-outline.svg

<svg height="24" viewBox="0 0 24 24" width="24" xmlns="http://www.w3.org/2000/svg"><path d="m20 8h-2.81c-.45-.8-1.07-1.5-1.82-2l1.63-1.59-1.41-1.41-2.17 2.17c-.46-.11-.92-.17-1.42-.17s-.95.06-1.41.17l-2.18-2.17-1.41 1.41 1.62 1.59c-.75.5-1.36 1.21-1.81 2h-2.81v2h2.09c-.06.33-.09.66-.09 1v1h-2v2h2v1c0 .34.03.67.09 1h-2.09v2h2.81c1.66 2.87 5.33 3.84 8.19 2.18.91-.52 1.67-1.28 2.19-2.18h2.81v-2h-2.09c.06-.33.09-.66.09-1v-1h2v-2h-2v-1c0-.34-.03-.67-.09-1h2.09zm-4 7a4 4 0 0 1 -4 4 4 4 0 0 1 -4-4v-4a4 4 0 0 1 4-4 4 4 0 0 1 4 4zm-2-5v2h-4v-2zm-4 4h4v2h-4z"/></svg>

<?xml version="1.0" encoding="UTF-8"?><!DOCTYPE svg PUBLIC "-//W3C//DTD SVG 1.1//EN" "http://www.w3.org/Graphics/SVG/1.1/DTD/svg11.dtd"><svg xmlns="http://www.w3.org/2000/svg" xmlns:xlink="http://www.w3.org/1999/xlink" version="1.1" id="mdi-bug-outline" width="24" height="24" viewBox="0 0 24 24"><path d="M20,8H17.19C16.74,7.2 16.12,6.5 15.37,6L17,4.41L15.59,3L13.42,5.17C12.96,5.06 12.5,5 12,5C11.5,5 11.05,5.06 10.59,5.17L8.41,3L7,4.41L8.62,6C7.87,6.5 7.26,7.21 6.81,8H4V10H6.09C6.03,10.33 6,10.66 6,11V12H4V14H6V15C6,15.34 6.03,15.67 6.09,16H4V18H6.81C8.47,20.87 12.14,21.84 15,20.18C15.91,19.66 16.67,18.9 17.19,18H20V16H17.91C17.97,15.67 18,15.34 18,15V14H20V12H18V11C18,10.66 17.97,10.33 17.91,10H20V8M16,15A4,4 0 0,1 12,19A4,4 0 0,1 8,15V11A4,4 0 0,1 12,7A4,4 0 0,1 16,11V15M14,10V12H10V10H14M10,14H14V16H10V14Z" /></svg>
